!!!OTL: Xiashui bannao haozi 6.Landanao shuban
!!!ARE: Asia, China,ÿSichuan, chongqing
!! Hanzu minge gailun, 82(2)
!!!SCT: C1713E
!!!YEM: Copyright 1995, estate of Helmut Schaffrath.
**kern
*ICvox
*Ivox
*M2/4
*k[f#c#g#]
*A:
{8.aa
16ff#
8cc#
16ff#
16ee
=1
16cc#
16ee
16cc#
16ee
32ff#
32ee
16cc#
8r}
=2
{8f#
16ee
32cc#
32ee
8ff#
24cc#
24ee
24cc#
=3
16b
16cc#
16a
16f#
8ee
8r}
=4
{8.cc#
16aa
16cc#
8.cc#
=5
16cc#
16ee
16ff#
16ee
16cc#
16ee
8r}
=6
{16f#
8aa
16ff#
16cc#
8cc#
16ee
=7
16cc#
16ee
16cc#
16b
16ff#
8.cc#}
=8
{4f#
16aa
16ff#
32ee
16.ff#
=9
16aa
8.ff#
16aa
16ff#
32ee
32ff#
16ee
=10
16cc#
16ee
8b}
{8.cc#
16b
=11
16a
16f#
8r}
{8.cc#
16b
=12
16a
16f#
8r}
{8.cc#
16b
=13
16a
8.f#}
{16b
16a
8f#
=14
4f#
4r}
==
!!!AGN: Haozi, Chuanjiang chuanfu haozi
!!!AMT: simple duple
!!!AIN: vox
!!!EED: Helmut Schaffrath
!!!EEV: 1.0
*-
